src/topics/icons/mantl.svg

<?xml version="1.0" encoding="UTF-8" standalone="no"?>
<svg width="256px" height="256px" viewBox="0 0 256 256" version="1.1" xmlns="http://www.w3.org/2000/svg" xmlns:xlink="http://www.w3.org/1999/xlink" preserveAspectRatio="xMidYMid">
	<g>
		<path d="M256,128 C256,198.692 198.692,256 128,256 C57.308,256 0,198.692 0,128 C0,57.308 57.308,0 128,0 C198.692,0 256,57.308 256,128" fill="#221F1F"></path>
		<path d="M144.2747,129.0387 C144.2747,119.8597 136.8337,112.4177 127.6537,112.4177 C127.5347,112.4177 127.4257,112.4497 127.3077,112.4527 L127.3077,129.0387 L144.2747,129.0387 Z" fill="#FFE000"></path>
		<path d="M127.6537,100.7448 C143.2797,100.7448 155.9477,113.4128 155.9477,129.0388 L175.4537,129.0388 C175.4537,102.6398 154.0527,81.2388 127.6537,81.2388 C127.5367,81.2388 127.4237,81.2558 127.3077,81.2558 L127.3077,100.7618 C127.4237,100.7608 127.5367,100.7448 127.6537,100.7448" fill="#FF9510"></path>
		<path d="M127.6537,68.4183 C161.1337,68.4183 188.2737,95.5593 188.2737,129.0383 L207.4127,129.0383 C207.4127,84.9893 171.7027,49.2803 127.6537,49.2803 C127.5367,49.2803 127.4237,49.2973 127.3077,49.2973 L127.3077,68.4363 C127.4237,68.4353 127.5367,68.4183 127.6537,68.4183" fill="#FF4B21"></path>
		<path d="M127.6537,36.4397 C178.7947,36.4397 220.2527,77.8977 220.2527,129.0387 L239.6987,129.0387 C239.6987,67.1587 189.5337,16.9947 127.6537,16.9947 C127.5377,16.9947 127.4237,17.0027 127.3077,17.0037 L127.3077,36.4487 C127.4237,36.4477 127.5377,36.4397 127.6537,36.4397" fill="#FF0031"></path>
	</g>
</svg>

<svg height="256" preserveAspectRatio="xMidYMid" viewBox="0 0 256 256" width="256" xmlns="http://www.w3.org/2000/svg"><path d="m256 128c0 70.692-57.308 128-128 128s-128-57.308-128-128 57.308-128 128-128 128 57.308 128 128" fill="#221f1f"/><path d="m144.2747 129.0387c0-9.179-7.441-16.621-16.621-16.621-.119 0-.228.032-.346.035v16.586z" fill="#ffe000"/><path d="m127.6537 100.7448c15.626 0 28.294 12.668 28.294 28.294h19.506c0-26.399-21.401-47.8-47.8-47.8-.117 0-.23.017-.346.017v19.506c.116-.001.229-.017.346-.017" fill="#ff9510"/><path d="m127.6537 68.4183c33.48 0 60.62 27.141 60.62 60.62h19.139c0-44.049-35.71-79.758-79.759-79.758-.117 0-.23.017-.346.017v19.139c.116-.001.229-.018.346-.018" fill="#ff4b21"/><path d="m127.6537 36.4397c51.141 0 92.599 41.458 92.599 92.599h19.446c0-61.88-50.165-112.044-112.045-112.044-.116 0-.23.008-.346.009v19.445c.116-.001.23-.009.346-.009" fill="#ff0031"/></svg>
